X:349
T: DIE TROMMEL RUFT DROMMETE KLINGT
N: F0607A
O: Europa, Mitteleuropa, Deutschland
R: Soldaten - Lied, Krieg, national
M: 4/4
L: 1/16
K: Bb
F2 | B3FD3FB3FD3F | B3AB3cd4B4 |
d3cd3ef3fe3d | c4c4c4z2
F2 | B3FD3FB3FD3F | B3AB3cd4B4 |
d3cd3ef3fe3d | c4c4c4z4 |
c3dc3BA3GF3A | c3Bc3de4c4 |
d3cd3ef3fB3c | d4c3cB4z2

@@@ Tune index: 5780
